SVG_Azure_Grouped/Office365/O365 - Forms.svg

<?xml version="1.0" encoding="UTF-8" standalone="no"?>
<!-- Generated by Microsoft Visio, SVG Export O365 - Forms.svg Page-1 -->

<svg
   xmlns:dc="http://purl.org/dc/elements/1.1/"
   xmlns:cc="http://creativecommons.org/ns#"
   xmlns:rdf="http://www.w3.org/1999/02/22-rdf-syntax-ns#"
   xmlns:svg="http://www.w3.org/2000/svg"
   xmlns="http://www.w3.org/2000/svg"
   xmlns:sodipodi="http://sodipodi.sourceforge.net/DTD/sodipodi-0.dtd"
   xmlns:inkscape="http://www.inkscape.org/namespaces/inkscape"
   width="0.74803227in"
   height="0.78740174in"
   viewBox="0 0 53.858301 56.692675"
   xml:space="preserve"
   class="st9"
   version="1.1"
   id="svg74"
   sodipodi:docname="O365 - Forms.svg"
   style="font-size:12px;overflow:visible;color-interpolation-filters:sRGB;fill:none;fill-rule:evenodd;stroke-linecap:square;stroke-miterlimit:3"
   inkscape:version="0.92.5 (2060ec1f9f, 2020-04-08)"><metadata
   id="metadata80"><rdf:RDF><cc:Work
       rdf:about=""><dc:format>image/svg+xml</dc:format><dc:type
         rdf:resource="http://purl.org/dc/dcmitype/StillImage" /></cc:Work></rdf:RDF></metadata><defs
   id="defs78" /><sodipodi:namedview
   pagecolor="#ffffff"
   bordercolor="#666666"
   borderopacity="1"
   objecttolerance="10"
   gridtolerance="10"
   guidetolerance="10"
   inkscape:pageopacity="0"
   inkscape:pageshadow="2"
   inkscape:window-width="640"
   inkscape:window-height="480"
   id="namedview76"
   showgrid="false"
   inkscape:zoom="1.6161656"
   inkscape:cx="35.905485"
   inkscape:cy="27.658011"
   inkscape:window-x="0"
   inkscape:window-y="0"
   inkscape:window-maximized="0"
   inkscape:current-layer="svg74" />
	<style
   type="text/css"
   id="style2">
	<![CDATA[
		.st1 {fill:#036c70;stroke:none;stroke-linecap:butt;stroke-width:18.8096}
		.st2 {fill:#37c6d0;stroke:none;stroke-linecap:butt;stroke-width:18.8096}
		.st3 {fill:#000000;fill-opacity:0.098;stroke:none;stroke-linecap:butt;stroke-width:18.8096}
		.st4 {fill:#000000;fill-opacity:0.2;stroke:none;stroke-linecap:butt;stroke-width:18.8096}
		.st5 {fill:#038387;stroke:none;stroke-linecap:butt;stroke-width:18.8096}
		.st6 {fill:none;stroke:none;stroke-linecap:butt;stroke-width:18.8096}
		.st7 {fill:#1a9ba1;stroke:none;stroke-linecap:butt;stroke-width:18.8096}
		.st8 {fill:#ffffff;stroke:none;stroke-linecap:butt;stroke-width:18.8096}
		.st9 {fill:none;fill-rule:evenodd;font-size:12px;overflow:visible;stroke-linecap:square;stroke-miterlimit:3}
	]]>
	</style>

	<g
   id="g72"
   transform="translate(-18.809597,-18.809817)">
		<title
   id="title4">Page-1</title>
		<g
   id="group20893-1"
   transform="translate(18.8096,-34.0157)">
			<title
   id="title6">O365 - Forms.20893</title>
			<g
   id="group20894-2">
				<title
   id="title8">_32</title>
				<g
   id="shape20895-3"
   transform="translate(13.4646,-5.31496)">
					<title
   id="title10">path6</title>
					<path
   d="M 40.39,84.72 21.88,74.09 0,84.72 v 22.44 a 2.25531,2.37402 -180 0 0 2.24,2.36 h 35.92 a 2.25531,2.37402 -180 0 0 2.23,-2.36 z"
   class="st1"
   id="path12"
   inkscape:connector-curvature="0"
   style="fill:#036c70;stroke:none;stroke-width:18.80960083;stroke-linecap:butt" />
				</g>
				<g
   id="shape20896-5"
   transform="translate(13.4646,-28.3465)">
					<title
   id="title15">path8</title>
					<path
   d="M 38.16,84.72 H 2.24 A 2.25531,2.37402 -180 0 0 0,87.07 v 22.45 H 40.39 V 87.07 a 2.25531,2.37402 -180 0 0 -2.23,-2.35 z"
   class="st2"
   id="path17"
   inkscape:connector-curvature="0"
   style="fill:#37c6d0;stroke:none;stroke-width:18.80960083;stroke-linecap:butt" />
				</g>
				<g
   id="shape20897-7"
   transform="translate(13.4646,-10.6299)">
					<title
   id="title20">path10</title>
					<path
   d="M 14.59,75.86 H 0 v 33.66 h 14.59 a 2.25531,2.37402 -180 0 0 2.24,-2.36 V 78.21 a 2.25531,2.37402 -180 0 0 -2.24,-2.35 z"
   class="st3"
   id="path22"
   inkscape:connector-curvature="0"
   style="fill:#000000;fill-opacity:0.09800002;stroke:none;stroke-width:18.80960083;stroke-linecap:butt" />
				</g>
				<g
   id="shape20898-9"
   transform="translate(13.4646,-8.85827)">
					<title
   id="title25">path12</title>
					<path
   d="M 12.91,75.86 H 0 v 33.66 h 12.91 a 2.25531,2.37402 -180 0 0 2.24,-2.36 V 78.21 a 2.25531,2.37402 -180 0 0 -2.24,-2.35 z"
   class="st4"
   id="path27"
   inkscape:connector-curvature="0"
   style="fill:#000000;fill-opacity:0.2;stroke:none;stroke-width:18.80960083;stroke-linecap:butt" />
				</g>
				<g
   id="shape20899-11"
   transform="translate(13.4646,-12.4016)">
					<title
   id="title30">path14</title>
					<path
   d="M 12.91,79.4 H 0 v 30.12 h 12.91 a 2.25531,2.37402 -180 0 0 2.24,-2.36 V 81.76 A 2.25531,2.37402 -180 0 0 12.91,79.4 Z"
   class="st4"
   id="path32"
   inkscape:connector-curvature="0"
   style="fill:#000000;fill-opacity:0.2;stroke:none;stroke-width:18.80960083;stroke-linecap:butt" />
				</g>
				<g
   id="shape20900-13"
   transform="translate(13.4646,-12.4016)">
					<title
   id="title35">path16</title>
					<path
   d="M 11.23,79.4 H 0 v 30.12 h 11.23 a 2.25531,2.37402 -180 0 0 2.23,-2.36 V 81.76 A 2.25531,2.37402 -180 0 0 11.23,79.4 Z"
   class="st4"
   id="path37"
   inkscape:connector-curvature="0"
   style="fill:#000000;fill-opacity:0.2;stroke:none;stroke-width:18.80960083;stroke-linecap:butt" />
				</g>
				<g
   id="shape20901-15"
   transform="translate(0,-14.1732)">
					<title
   id="title40">Back_Plate</title>
					<path
   d="m 0,107.16 a 2.23854,2.35635 -180 0 0 2.24,2.36 h 22.45 a 2.23854,2.35635 -180 0 0 2.24,-2.36 V 83.53 A 2.23854,2.35635 -180 0 0 24.69,81.17 H 2.24 A 2.23854,2.35635 -180 0 0 0,83.53 Z"
   class="st5"
   id="path42"
   inkscape:connector-curvature="0"
   style="fill:#038387;stroke:none;stroke-width:18.80960083;stroke-linecap:butt" />
				</g>
				<g
   id="shape20902-17">
					<title
   id="title45">path19</title>
					<rect
   x="0"
   y="52.825298"
   width="53.858299"
   height="56.692902"
   class="st6"
   id="rect47"
   style="fill:none;stroke:none;stroke-width:18.80960083;stroke-linecap:butt" />
				</g>
			</g>
			<g
   id="shape20903-19"
   transform="translate(35.3445,-8.85827)">
				<title
   id="title51">path22</title>
				<path
   d="m 0,95.35 h 13.46 v 14.17 H 0 Z"
   class="st7"
   id="path53"
   inkscape:connector-curvature="0"
   style="fill:#1a9ba1;stroke:none;stroke-width:18.80960083;stroke-linecap:butt" />
			</g>
			<g
   id="shape20904-21"
   transform="translate(33.6614,-31.8898)">
				<title
   id="title56">circle24</title>
				<ellipse
   cx="8.41535"
   cy="100.66"
   rx="8.41535"
   ry="8.8582697"
   class="st7"
   id="ellipse58"
   style="fill:#1a9ba1;stroke:none;stroke-width:18.80960083;stroke-linecap:butt" />
			</g>
			<g
   id="shape20905-23"
   transform="translate(37.0276,-35.4331)">
				<title
   id="title61">circle26</title>
				<ellipse
   cx="5.0492101"
   cy="104.203"
   rx="5.0492101"
   ry="5.31496"
   class="st1"
   id="ellipse63"
   style="fill:#036c70;stroke:none;stroke-width:18.80960083;stroke-linecap:butt" />
			</g>
			<g
   id="shape20906-25"
   transform="translate(8.41536,-19.4882)">
				<title
   id="title66">path28</title>
				<path
   d="M 10.59,94.67 H 3.37 v 4.84 h 6.73 v 2.92 H 3.37 v 7.09 H 0 V 91.8 h 10.59 z"
   class="st8"
   id="path68"
   inkscape:connector-curvature="0"
   style="fill:#ffffff;stroke:none;stroke-width:18.80960083;stroke-linecap:butt" />
			</g>
		</g>
	</g>
</svg>

<?xml version="1.0" encoding="UTF-8" standalone="no"?>
<!DOCTYPE svg PUBLIC "-//W3C//DTD SVG 1.1//EN" "http://www.w3.org/Graphics/SVG/1.1/DTD/svg11.dtd">
<!-- Generated by Microsoft Visio, SVG Export O365 - Forms.svg Page-1 -->
<svg xmlns="http://www.w3.org/2000/svg" xmlns:xlink="http://www.w3.org/1999/xlink" xmlns:ev="http://www.w3.org/2001/xml-events"
		width="1.27052in" height="1.52109in" viewBox="0 0 91.4774 109.518" xml:space="preserve" color-interpolation-filters="sRGB"
		class="st9">
	<style type="text/css">
	<![CDATA[
		.st1 {fill:#036c70;stroke:none;stroke-linecap:butt;stroke-width:18.8096}
		.st2 {fill:#37c6d0;stroke:none;stroke-linecap:butt;stroke-width:18.8096}
		.st3 {fill:#000000;fill-opacity:0.098;stroke:none;stroke-linecap:butt;stroke-width:18.8096}
		.st4 {fill:#000000;fill-opacity:0.2;stroke:none;stroke-linecap:butt;stroke-width:18.8096}
		.st5 {fill:#038387;stroke:none;stroke-linecap:butt;stroke-width:18.8096}
		.st6 {fill:none;stroke:none;stroke-linecap:butt;stroke-width:18.8096}
		.st7 {fill:#1a9ba1;stroke:none;stroke-linecap:butt;stroke-width:18.8096}
		.st8 {fill:#ffffff;stroke:none;stroke-linecap:butt;stroke-width:18.8096}
		.st9 {fill:none;fill-rule:evenodd;font-size:12px;overflow:visible;stroke-linecap:square;stroke-miterlimit:3}
	]]>
	</style>

	<g>
		<title>Page-1</title>
		<g id="group20427-1" transform="translate(18.8096,-34.0157)">
			<title>O365 - Forms.20427</title>
			<g id="group20428-2">
				<title>_32</title>
				<g id="shape20429-3" transform="translate(13.4646,-5.31496)">
					<title>path6</title>
					<path d="M40.39 84.72 L21.88 74.09 L0 84.72 L0 107.16 A2.25531 2.37402 -180 0 0 2.24 109.52 L38.16 109.52 A2.25531
								 2.37402 -180 0 0 40.39 107.16 L40.39 84.72 Z" class="st1"/>
				</g>
				<g id="shape20430-5" transform="translate(13.4646,-28.3465)">
					<title>path8</title>
					<path d="M38.16 84.72 L2.24 84.72 A2.25531 2.37402 -180 0 0 0 87.07 L0 109.52 L40.39 109.52 L40.39 87.07 A2.25531
								 2.37402 -180 0 0 38.16 84.72 Z" class="st2"/>
				</g>
				<g id="shape20431-7" transform="translate(13.4646,-10.6299)">
					<title>path10</title>
					<path d="M14.59 75.86 L0 75.86 L0 109.52 L14.59 109.52 A2.25531 2.37402 -180 0 0 16.83 107.16 L16.83 78.21 A2.25531
								 2.37402 -180 0 0 14.59 75.86 Z" class="st3"/>
				</g>
				<g id="shape20432-9" transform="translate(13.4646,-8.85827)">
					<title>path12</title>
					<path d="M12.91 75.86 L0 75.86 L0 109.52 L12.91 109.52 A2.25531 2.37402 -180 0 0 15.15 107.16 L15.15 78.21 A2.25531
								 2.37402 -180 0 0 12.91 75.86 Z" class="st4"/>
				</g>
				<g id="shape20433-11" transform="translate(13.4646,-12.4016)">
					<title>path14</title>
					<path d="M12.91 79.4 L0 79.4 L0 109.52 L12.91 109.52 A2.25531 2.37402 -180 0 0 15.15 107.16 L15.15 81.76 A2.25531
								 2.37402 -180 0 0 12.91 79.4 Z" class="st4"/>
				</g>
				<g id="shape20434-13" transform="translate(13.4646,-12.4016)">
					<title>path16</title>
					<path d="M11.23 79.4 L0 79.4 L0 109.52 L11.23 109.52 A2.25531 2.37402 -180 0 0 13.46 107.16 L13.46 81.76 A2.25531
								 2.37402 -180 0 0 11.23 79.4 Z" class="st4"/>
				</g>
				<g id="shape20435-15" transform="translate(0,-14.1732)">
					<title>Back_Plate</title>
					<path d="M0 107.16 A2.23854 2.35635 -180 0 0 2.24 109.52 L24.69 109.52 A2.23854 2.35635 -180 0 0 26.93 107.16
								 L26.93 83.53 A2.23854 2.35635 -180 0 0 24.69 81.17 L2.24 81.17 A2.23854 2.35635 -180 0 0 -0 83.53
								 L0 107.16 Z" class="st5"/>
				</g>
				<g id="shape20436-17">
					<title>path19</title>
					<rect x="0" y="52.8253" width="53.8583" height="56.6929" class="st6"/>
				</g>
			</g>
			<g id="shape20437-19" transform="translate(35.3445,-8.85827)">
				<title>path22</title>
				<path d="M0 95.35 L13.46 95.35 L13.46 109.52 L0 109.52 L0 95.35 Z" class="st7"/>
			</g>
			<g id="shape20438-21" transform="translate(33.6614,-31.8898)">
				<title>circle24</title>
				<ellipse cx="8.41535" cy="100.66" rx="8.41535" ry="8.85827" class="st7"/>
			</g>
			<g id="shape20439-23" transform="translate(37.0276,-35.4331)">
				<title>circle26</title>
				<ellipse cx="5.04921" cy="104.203" rx="5.04921" ry="5.31496" class="st1"/>
			</g>
			<g id="shape20440-25" transform="translate(8.41536,-19.4882)">
				<title>path28</title>
				<path d="M10.59 94.67 L3.37 94.67 L3.37 99.51 L10.1 99.51 L10.1 102.43 L3.37 102.43 L3.37 109.52 L0 109.52 L0 91.8
							 L10.59 91.8 L10.59 94.67 Z" class="st8"/>
			</g>
		</g>
	</g>
</svg>
